symbols/web/dynamic_feed/materialsymbolsoutlined/dynamic_feed_wght100gradN25_48px.svg

<svg xmlns="http://www.w3.org/2000/svg" height="48" width="48"><path d="M9.9 38.75q-1.1 0-1.9-.775-.8-.775-.8-1.925v-11.7h1.1v11.7q0 .65.5 1.125t1.1.475h15.85v1.1Zm6.8-6.8q-1.1 0-1.9-.775-.8-.775-.8-1.925V17.5h1.1v11.75q0 .65.5 1.125t1.1.475h15.85v1.1Zm6.8-6.8q-1.1 0-1.9-.775-.8-.775-.8-1.925V11.9q0-1.1.8-1.9.8-.8 1.9-.8h14.65q1.05 0 1.875.8t.825 1.9v10.55q0 1.15-.825 1.925-.825.775-1.875.775Zm0-1.1h14.65q.6 0 1.1-.475.5-.475.5-1.125v-8.4H21.9v8.4q0 .65.5 1.125t1.1.475Z"/></svg>

<svg xmlns="http://www.w3.org/2000/svg" height="48" width="48"><path d="M16.7 31.95Q15.6 31.95 14.8 31.175Q14 30.4 14 29.25V17.5H15.1V29.25Q15.1 29.9 15.6 30.375Q16.1 30.85 16.7 30.85H32.55V31.95ZM23.5 25.15Q22.4 25.15 21.6 24.375Q20.8 23.6 20.8 22.45V11.9Q20.8 10.8 21.6 10Q22.4 9.2 23.5 9.2H38.15Q39.2 9.2 40.025 10Q40.85 10.8 40.85 11.9V22.45Q40.85 23.6 40.025 24.375Q39.2 25.15 38.15 25.15ZM23.5 24.05H38.15Q38.75 24.05 39.25 23.575Q39.75 23.1 39.75 22.45V14.05H21.9V22.45Q21.9 23.1 22.4 23.575Q22.9 24.05 23.5 24.05ZM9.9 38.75Q8.8 38.75 8 37.975Q7.2 37.2 7.2 36.05V24.35H8.3V36.05Q8.3 36.7 8.8 37.175Q9.3 37.65 9.9 37.65H25.75V38.75Z"/></svg>
